X:397
T:Bella Ciao
Z:Jack Campin, http://www.campin.me.uk/
F:Jack Campin's Nine-Note Tunebook
% last edit 03-02-2013
M:4/4
L:1/8
Q:1/4=120
K:FMin
CFG|AF3- F\
CFG|AF3- F
CFG|A2GF A2GF|c2c2 c
cBc|dd3- ddcB|dc3- c
cBA|G2c2 A2G2|F4-  F|]


% == French songs ===========================================================

